X: 1
T:a Man's a Man for a' that
R:Reel
O:Scotland
M:2/4
L:1/8
K:EMix
F|\
A>B AE | FA Bd | c>B AE | F2FE |\
A>B AE | FA Bd | c>B AF | E2E ||
d |\
c>d ec | dc Bd | c>d eA | F2 Fd | \
c>d ec | fB Bd | c>B AF | E2 E |]
